src/pos-icons/leak-off.svg

<svg height="24" viewBox="0 0 24 24" width="24" xmlns="http://www.w3.org/2000/svg"><path d="m10 3h-2c0 .37-.04.72-.12 1.06l1.59 1.59c.34-.81.53-1.71.53-2.65m-7 1.27 2.84 2.84c-.81.56-1.78.89-2.84.89v2c1.61 0 3.09-.55 4.27-1.46l1.43 1.43c-1.56 1.27-3.54 2.03-5.7 2.03v2c2.71 0 5.19-1 7.11-2.62l2.5 2.5c-1.61 1.93-2.61 4.41-2.61 7.12h2c0-2.16.76-4.14 2.03-5.69l1.43 1.43c-.91 1.17-1.46 2.65-1.46 4.26h2c0-1.06.33-2.03.89-2.84l2.84 2.84 1.27-1.27-16.73-16.73zm11-1.27h-2c0 1.5-.37 2.91-1 4.16l1.44 1.46c.98-1.62 1.56-3.56 1.56-5.62m5.94 13.12c.34-.08.69-.12 1.06-.12v-2c-.94 0-1.84.19-2.66.5zm-4.56-4.56 1.46 1.44c1.25-.63 2.66-1 4.16-1v-2c-2.06 0-4 .58-5.62 1.56z"/></svg>

<?xml version="1.0" encoding="UTF-8"?><!DOCTYPE svg PUBLIC "-//W3C//DTD SVG 1.1//EN" "http://www.w3.org/Graphics/SVG/1.1/DTD/svg11.dtd"><svg xmlns="http://www.w3.org/2000/svg" xmlns:xlink="http://www.w3.org/1999/xlink" version="1.1" id="mdi-leak-off" width="24" height="24" viewBox="0 0 24 24"><path d="M10,3H8C8,3.37 7.96,3.72 7.88,4.06L9.47,5.65C9.81,4.84 10,3.94 10,3M3,4.27L5.84,7.11C5.03,7.67 4.06,8 3,8V10C4.61,10 6.09,9.45 7.27,8.54L8.7,9.97C7.14,11.24 5.16,12 3,12V14C5.71,14 8.19,13 10.11,11.38L12.61,13.88C11,15.81 10,18.29 10,21H12C12,18.84 12.76,16.86 14.03,15.31L15.46,16.74C14.55,17.91 14,19.39 14,21H16C16,19.94 16.33,18.97 16.89,18.16L19.73,21L21,19.73L4.27,3L3,4.27M14,3H12C12,4.5 11.63,5.91 11,7.16L12.44,8.62C13.42,7 14,5.06 14,3M19.94,16.12C20.28,16.04 20.63,16 21,16V14C20.06,14 19.16,14.19 18.34,14.5L19.94,16.12M15.38,11.56L16.84,13C18.09,12.37 19.5,12 21,12V10C18.94,10 17,10.58 15.38,11.56Z" /></svg>
